.local/share/icons/Gruvbox-Plus-Dark/status/32/starred.svg

<svg xmlns="http://www.w3.org/2000/svg" width="32" height="32" version="1">
 <path d="m 15.5,2.9997517 c -1.307197,0.018684 -2.240232,0.8058961 -2.677734,2.109375 l 0.01758,-0.058594 -2.054688,5.9492193 -6.9257809,0 c -0.015101,-2.42e-4 -0.029821,-2.42e-4 -0.044922,0 -0.8271266,0.02681 -1.5721928,0.512609 -2.0976562,1.152344 -1.13642101,1.304496 -0.89620891,3.657981 0.546875,4.630859 l 5.4453125,3.978516 -2.1132813,6.566406 c -0.00235,0.0073 -0.00365,0.01418 -0.00586,0.02148 -0.322905,1.060759 -0.019257,2.152805 0.7929687,2.900391 0.00587,0.0055 0.011571,0.01219 0.017578,0.01758 0.9760412,0.867686 2.3489216,0.977964 3.4511713,0.259766 0.02097,-0.01357 0.04034,-0.02832 0.06055,-0.04297 L 15.5,26.499752 l 5.587891,3.984375 c 0.02021,0.01466 0.03958,0.02941 0.06055,0.04297 1.10225,0.718198 2.475129,0.60792 3.451171,-0.259766 0.006,-0.0054 0.01167,-0.01206 0.01758,-0.01758 0.812225,-0.747586 1.115873,-1.839632 0.792968,-2.900391 -0.0022,-0.0073 -0.0035,-0.01421 -0.0059,-0.02148 l -2.113281,-6.566406 5.445312,-3.978516 c 1.443084,-0.972878 1.683296,-3.326363 0.546875,-4.630859 -0.525463,-0.639735 -1.270529,-1.125534 -2.097656,-1.152344 -0.0151,-2.42e-4 -0.02982,-2.42e-4 -0.04492,0 l -6.925781,0 -2.054688,-5.9492191 0.01758,0.058594 C 17.740232,3.8056478 16.807197,3.0184357 15.5,2.9997517 Z" style="opacity:0.2"/>
 <path style="fill:#fabd2f" d="M 15.5 2 C 14.192803 2.018684 13.259768 2.8058961 12.822266 4.109375 L 12.839844 4.0507812 L 10.785156 10 L 3.859375 10 C 3.844274 9.9997578 3.8295541 9.9997578 3.8144531 10 C 2.9873265 10.02681 2.2422603 10.512609 1.7167969 11.152344 C 0.58037587 12.45684 0.82058797 14.810325 2.2636719 15.783203 L 7.7089844 19.761719 L 5.5957031 26.328125 C 5.5933531 26.335395 5.5920537 26.342309 5.5898438 26.349609 C 5.2669387 27.410368 5.5705864 28.502414 6.3828125 29.25 C 6.3887165 29.25552 6.3943806 29.262178 6.4003906 29.267578 C 7.3764318 30.135264 8.7493126 30.245542 9.8515625 29.527344 C 9.8725325 29.513774 9.8918994 29.499025 9.9121094 29.484375 L 15.5 25.5 L 21.087891 29.484375 C 21.108101 29.499035 21.127467 29.513784 21.148438 29.527344 C 22.250688 30.245542 23.623567 30.135264 24.599609 29.267578 C 24.605609 29.262178 24.611277 29.25552 24.617188 29.25 C 25.429413 28.502414 25.733061 27.410368 25.410156 26.349609 C 25.407956 26.342309 25.406697 26.335395 25.404297 26.328125 L 23.291016 19.761719 L 28.736328 15.783203 C 30.179412 14.810325 30.419624 12.45684 29.283203 11.152344 C 28.75774 10.512609 28.012674 10.02681 27.185547 10 C 27.170447 9.9997578 27.155725 9.9997578 27.140625 10 L 20.214844 10 L 18.160156 4.0507812 L 18.177734 4.109375 C 17.740232 2.8058961 16.807197 2.018684 15.5 2 z"/>
 <path d="M 15.5,2 C 14.192803,2.018684 13.259768,2.8058961 12.822266,4.109375 L 12.839844,4.0507812 10.785156,10 3.8593751,10 C 3.8442741,9.9997578 3.8295542,9.9997578 3.8144532,10 2.9873266,10.02681 2.2422604,10.512609 1.716797,11.152344 1.1227146,11.83429 0.91335689,12.800795 1.0468751,13.708984 1.127384,13.134555 1.3401057,12.584747 1.716797,12.152344 2.2422604,11.512609 2.9873266,11.02681 3.8144532,11 c 0.015101,-2.42e-4 0.029821,-2.42e-4 0.044922,0 l 6.9257808,0 2.054688,-5.9492188 -0.01758,0.058594 C 13.259768,3.8058961 14.192803,3.018684 15.5,3 c 1.307197,0.018684 2.240265,0.8058929 2.677734,2.109375 L 18.160156,5.0507812 20.214844,11 l 6.925781,0 c 0.0151,-2.42e-4 0.02982,-2.42e-4 0.04492,0 0.827127,0.02681 1.572193,0.512609 2.097656,1.152344 0.376691,0.432403 0.589413,0.982211 0.669922,1.55664 0.133518,-0.908189 -0.07584,-1.874694 -0.669922,-2.55664 C 28.75774,10.512609 28.012674,10.02681 27.185547,10 c -0.0151,-2.422e-4 -0.02982,-2.422e-4 -0.04492,0 l -6.925781,0 -2.054688,-5.9492188 0.01758,0.058594 C 17.740232,2.8058961 16.807197,2.018684 15.5,2 Z M 7.4492189,20.572266 5.5957032,26.328125 c -0.00235,0.0073 -0.00365,0.01418 -0.00586,0.02148 -0.1364147,0.448129 -0.1545077,0.901066 -0.076172,1.332032 0.020171,-0.110727 0.042543,-0.22156 0.076172,-0.332032 0.00221,-0.0073 0.00351,-0.01418 0.00586,-0.02148 L 7.7089845,20.761719 7.4492189,20.572266 Z m 16.1015621,0 -0.259765,0.189453 2.113281,6.566406 c 0.0024,0.0073 0.0037,0.01418 0.0059,0.02148 0.03363,0.110472 0.056,0.221305 0.07617,0.332032 0.07834,-0.430966 0.06024,-0.883903 -0.07617,-1.332032 -0.0022,-0.0073 -0.0035,-0.01421 -0.0059,-0.02148 l -1.853516,-5.755859 z" style="opacity:0.2;fill:#ebdbb2"/>
</svg>

<svg width="32" height="32" version="1" xmlns="http://www.w3.org/2000/svg">
  <path d="m15.5 2.9998c-1.3072 0.018684-2.2402 0.8059-2.6777 2.1094l0.01758-0.058594-2.0547 5.9492h-6.9258c-0.015101-2.42e-4 -0.029821-2.42e-4 -0.044922 0-0.82713 0.02681-1.5722 0.51261-2.0977 1.1523-1.1364 1.3045-0.89621 3.658 0.54688 4.6309l5.4453 3.9785-2.1133 6.5664c-0.00235 0.0073-0.00365 0.01418-0.00586 0.02148-0.3229 1.0608-0.019257 2.1528 0.79297 2.9004 0.00587 0.0055 0.011571 0.01219 0.017578 0.01758 0.97604 0.86769 2.3489 0.97796 3.4512 0.25977 0.02097-0.01357 0.04034-0.02832 0.06055-0.04297l5.5879-3.9844 5.5879 3.9844c0.02021 0.01466 0.03958 0.02941 0.06055 0.04297 1.1022 0.7182 2.4751 0.60792 3.4512-0.25977 6e-3 -0.0054 0.01167-0.01206 0.01758-0.01758 0.81222-0.74759 1.1159-1.8396 0.79297-2.9004-0.0022-0.0073-0.0035-0.01421-0.0059-0.02148l-2.1133-6.5664 5.4453-3.9785c1.4431-0.97288 1.6833-3.3264 0.54688-4.6309-0.52546-0.63974-1.2705-1.1255-2.0977-1.1523-0.0151-2.42e-4 -0.02982-2.42e-4 -0.04492 0h-6.9258l-2.0547-5.9492 0.01758 0.058594c-0.43747-1.3035-1.3705-2.0907-2.6777-2.1094z" fill="#282828" opacity=".2"/>
  <path d="m15.5 2c-1.3072 0.018684-2.2402 0.8059-2.6777 2.1094l0.017578-0.058594-2.0547 5.9492h-6.9258c-0.015101-2.422e-4 -0.029821-2.422e-4 -0.044922 0-0.82713 0.02681-1.5722 0.51261-2.0977 1.1523-1.1364 1.3045-0.89621 3.658 0.54688 4.6309l5.4453 3.9785-2.1133 6.5664c-0.00235 0.00727-0.0036494 0.014184-0.0058593 0.021484-0.32291 1.0608-0.019257 2.1528 0.79297 2.9004 0.005904 0.00552 0.011568 0.012178 0.017578 0.017578 0.97604 0.86769 2.3489 0.97796 3.4512 0.25977 0.02097-0.01357 0.040337-0.028319 0.060547-0.042969l5.5879-3.9844 5.5879 3.9844c0.02021 0.01466 0.039576 0.029409 0.060547 0.042969 1.1022 0.7182 2.4751 0.60792 3.4512-0.25977 6e-3 -0.0054 0.011668-0.012058 0.017579-0.017578 0.81222-0.74759 1.1159-1.8396 0.79297-2.9004-0.0022-0.0073-0.003459-0.014214-0.005859-0.021484l-2.1133-6.5664 5.4453-3.9785c1.4431-0.97288 1.6833-3.3264 0.54688-4.6309-0.52546-0.63974-1.2705-1.1255-2.0977-1.1523-0.0151-2.422e-4 -0.029822-2.422e-4 -0.044922 0h-6.9258l-2.0547-5.9492 0.017578 0.058594c-0.4375-1.3035-1.3705-2.0907-2.6777-2.1094z" fill="#fabd2f"/>
  <path d="m15.5 2c-1.3072 0.018684-2.2402 0.8059-2.6777 2.1094l0.017578-0.058594-2.0547 5.9492h-6.9258c-0.015101-2.422e-4 -0.029821-2.422e-4 -0.044922 0-0.82713 0.02681-1.5722 0.51261-2.0977 1.1523-0.59408 0.68195-0.80344 1.6485-0.66992 2.5566 0.080509-0.57443 0.29323-1.1242 0.66992-1.5566 0.52546-0.63974 1.2705-1.1255 2.0977-1.1523 0.015101-2.42e-4 0.029821-2.42e-4 0.044922 0h6.9258l2.0547-5.9492-0.01758 0.058594c0.4375-1.3035 1.3705-2.0907 2.6777-2.1094 1.3072 0.018684 2.2403 0.80589 2.6777 2.1094l-0.017578-0.058594 2.0547 5.9492h6.9258c0.0151-2.42e-4 0.02982-2.42e-4 0.04492 0 0.82713 0.02681 1.5722 0.51261 2.0977 1.1523 0.37669 0.4324 0.58941 0.98221 0.66992 1.5566 0.13352-0.90819-0.07584-1.8747-0.66992-2.5566-0.52546-0.63974-1.2705-1.1255-2.0977-1.1523-0.0151-2.422e-4 -0.02982-2.422e-4 -0.04492 0h-6.9258l-2.0547-5.9492 0.01758 0.058594c-0.43751-1.3035-1.3705-2.0907-2.6777-2.1094zm-8.0508 18.572-1.8535 5.7559c-0.00235 0.0073-0.00365 0.01418-0.00586 0.02148-0.13641 0.44813-0.15451 0.90107-0.076172 1.332 0.020171-0.11073 0.042543-0.22156 0.076172-0.33203 0.00221-0.0073 0.00351-0.01418 0.00586-0.02148l2.1133-6.5664-0.25977-0.18945zm16.102 0-0.25976 0.18945 2.1133 6.5664c0.0024 0.0073 0.0037 0.01418 0.0059 0.02148 0.03363 0.11047 0.056 0.2213 0.07617 0.33203 0.07834-0.43097 0.06024-0.8839-0.07617-1.332-0.0022-0.0073-0.0035-0.01421-0.0059-0.02148l-1.8535-5.7559z" fill="#ebdbb2" opacity=".4"/>
</svg>
